packages/icons/src/emoji/svg/parasol.svg

<svg width="120" height="120" viewBox="0 0 120 120" fill="none" xmlns="http://www.w3.org/2000/svg">
<path d="M112.463 87.0187C109.163 84.0468 102.994 78.4687 87.1317 74.6718C83.1379 73.7156 74.6629 71.4656 60.6567 71.4093C51.3379 71.3718 38.0348 71.9718 26.7473 75.1125C21.7035 76.5187 22.7067 78.0281 26.316 77.3718C31.791 76.3781 35.8504 76.4625 41.3723 76.575C43.3785 76.6125 49.1254 76.9875 53.7942 78.0187C57.9192 78.9375 61.0598 80.475 62.0442 81.4031C62.7754 82.0968 64.866 84.0937 64.3973 85.8656C63.6942 88.5093 58.041 87.8718 56.9535 91.1531C56.541 92.3906 57.0098 93.5156 57.1035 93.7312C57.8254 95.3625 59.7192 96.1031 63.4504 96.8343C76.0035 99.3187 70.3692 98.7562 75.6004 99.1781C88.5848 100.237 93.366 99.6281 100.247 102.534C104.213 104.212 105.075 105.441 105.16 106.462C105.225 107.166 105.066 109.556 96.9848 113.212C95.916 113.7 98.241 116.109 107.907 111C112.913 107.644 117.385 102.797 117.488 96.8531C117.563 92.8125 115.5 89.7562 112.463 87.0187Z" fill="#3FBFE7"/>
<path d="M105.159 106.481C105.065 105.469 104.775 104.438 101.006 102.713C95.7467 100.313 89.0435 99.9189 76.0685 98.7564C69.056 98.1282 69.1967 97.9689 63.4404 96.8439C59.7185 96.1126 57.8154 95.372 57.0935 93.7407C56.9998 93.5251 56.531 92.4001 56.9435 91.1626C58.031 87.8814 63.6935 88.5189 64.3873 85.8751C64.856 84.1032 62.7654 82.1064 62.0342 81.4126C61.0498 80.4751 57.9092 78.947 53.7842 78.0283C49.1154 76.9876 43.3592 76.622 41.3623 76.5845C35.1654 76.4532 31.4342 76.397 26.306 77.3814C26.306 77.3814 13.0873 79.9126 5.35291 87.347C3.53416 89.297 1.84666 91.7814 1.70604 95.0439C1.70604 95.0907 1.70604 95.147 1.69666 95.2126C1.69666 95.2126 1.60291 98.9439 4.38729 102.844C10.5935 111.544 31.4623 115.847 31.4623 115.847C44.756 118.584 54.9092 118.753 63.4029 118.856C73.5654 118.969 83.7279 118.369 93.7498 114.563C94.8185 114.159 95.8967 113.728 96.9654 113.241C105.065 109.575 105.225 107.184 105.159 106.481Z" fill="#F7C977"/>
<path d="M85.3497 91.9313C86.306 93.9282 92.9341 94.8751 92.5872 97.0688C92.2404 99.2626 85.6779 98.1188 84.1122 99.6845C82.5372 101.25 83.6529 107.813 81.4685 108.159C79.2747 108.497 78.3279 101.916 76.3591 100.903C74.381 99.8907 68.4935 102.984 67.4904 101.006C66.4872 99.0282 72.4591 96.0938 72.806 93.9001C73.1529 91.7063 68.3997 87.0657 69.9747 85.4907C71.5404 83.9251 76.1716 88.6501 78.3747 88.3501C80.6247 88.0501 83.9154 82.1438 85.8935 83.2594C87.7591 84.3376 84.4122 89.9719 85.3497 91.9313Z" fill="#F79329"/>
<path d="M38.794 88.0969C38.569 88.05 38.344 87.9844 38.1284 87.8812C37.4241 87.5611 36.8755 86.9746 36.6031 86.2505C36.3307 85.5264 36.3566 84.7238 36.6753 84.0187L54.5346 44.4844C54.8556 43.7807 55.4421 43.2328 56.166 42.9605C56.8898 42.6882 57.692 42.7136 58.3971 43.0312C59.8596 43.6969 60.5159 45.4219 59.8503 46.8937L41.9909 86.4375C41.72 87.0314 41.2579 87.5175 40.6785 87.8183C40.0991 88.119 39.4357 88.2171 38.794 88.0969Z" fill="#78A3AD"/>
<path d="M74.3252 17.1376L74.1002 17.0345C74.1846 17.072 74.2689 17.1188 74.3533 17.1563L74.3252 17.1376ZM71.8596 18.0376C73.8189 24.3938 78.0002 42.9563 69.7314 67.1251C69.7408 67.0876 69.7596 67.0501 69.7689 67.0126C84.4221 63.2251 93.7127 71.147 93.9002 71.3063C97.2189 42.2251 77.9064 21.9938 72.4408 16.9126L72.2064 17.4751C72.1221 17.7001 72.0002 17.8782 71.8596 18.0376ZM68.6721 16.022L68.8502 15.6001C61.4721 15.6095 36.8627 17.372 20.7939 39.2251C21.2346 39.272 33.0096 41.6907 41.0346 53.1282L41.0064 53.2032C50.2502 31.5751 63.2533 20.8782 68.5877 17.1938C68.4939 16.8188 68.5127 16.4157 68.6721 16.022Z" fill="white"/>
<path d="M74.3535 17.1562C74.2692 17.1187 74.1848 17.0718 74.1004 17.0343C73.6223 16.8093 73.1535 16.5937 72.666 16.3781L72.441 16.9218C77.9067 22.0031 97.2192 42.225 93.9004 71.3156C93.7129 71.1468 84.4223 63.2343 69.7692 67.0218C69.7598 67.0593 69.741 67.0968 69.7317 67.1343C78.0004 42.9562 73.8192 24.4031 71.8598 18.0468C71.4473 18.4968 70.8379 18.7312 70.2285 18.6656C69.8366 18.6237 69.4676 18.4601 69.1734 18.1978C68.8791 17.9355 68.6744 17.5877 68.5879 17.2031C63.2535 20.8875 50.2504 31.5843 41.0067 53.2125L41.0348 53.1375C33.0004 41.7 21.2348 39.2812 20.7942 39.225C36.8629 17.3718 61.4723 15.6093 68.8504 15.6L69.141 14.9062C44.5973 5.45622 19.0317 10.5937 4.61291 26.3062C3.66603 27.3375 3.87228 29.0343 5.02541 29.7281C8.55041 31.8656 15.2535 36.5625 18.3192 43.0031C18.4223 43.0406 33.7223 48.1875 38.841 58.7343C38.9629 58.7437 56.2598 59.5875 68.4285 70.6969C68.4285 70.7062 68.4192 70.7156 68.4192 70.7156C68.4192 70.7156 82.2754 66.8812 93.291 75.4218C93.3192 75.2812 93.3379 75.15 93.3567 75.0187L93.3004 75.3937C93.3004 75.3937 101.785 70.5562 110.316 73.5094C111.422 73.8937 112.575 72.9562 112.566 71.7C112.425 50.175 97.6785 28.2562 74.3535 17.1562Z" fill="#196CA2"/>
<path d="M68.8497 15.6093L68.6715 16.0312C68.5122 16.4156 68.4934 16.8187 68.5778 17.2031C68.7184 17.7843 69.1122 18.2906 69.7028 18.5343C69.8715 18.5999 70.0403 18.6468 70.2184 18.6656C70.6315 18.7085 71.0474 18.6178 71.4051 18.4069C71.7628 18.196 72.0435 17.8759 72.2059 17.4937L72.4403 16.9312L72.6653 16.3874L74.8872 11.0062C75.2903 10.0312 74.8309 8.9062 73.8465 8.50307C72.8715 8.09995 71.7559 8.5687 71.3434 9.5437L69.1215 14.9156L68.8497 15.6093Z" fill="#78A3AD"/>
</svg>

<svg xmlns="http://www.w3.org/2000/svg" fill="none" aria-hidden="true" data-slot="icon" viewBox="0 0 120 120"><path fill="#3FBFE7" d="M112.463 87.019c-3.3-2.972-9.469-8.55-25.331-12.347-3.994-.956-12.47-3.206-26.475-3.263-9.32-.037-22.622.563-33.91 3.703-5.044 1.407-4.04 2.916-.431 2.26 5.475-.994 9.534-.91 15.056-.797 2.007.037 7.753.412 12.422 1.444 4.125.918 7.266 2.456 8.25 3.384.731.694 2.822 2.69 2.353 4.463-.703 2.643-6.356 2.006-7.444 5.287-.412 1.238.057 2.363.15 2.578.722 1.632 2.616 2.372 6.347 3.103 12.554 2.485 6.92 1.922 12.15 2.344 12.985 1.059 17.766.45 24.647 3.356 3.966 1.678 4.828 2.907 4.913 3.928.065.704-.094 3.094-8.175 6.75-1.069.488 1.256 2.897 10.922-2.212 5.006-3.356 9.478-8.203 9.581-14.147.075-4.04-1.988-7.097-5.025-9.834"/><path fill="#F7C977" d="M105.159 106.481c-.094-1.012-.384-2.043-4.153-3.768-5.26-2.4-11.963-2.794-24.937-3.957-7.013-.628-6.872-.787-12.629-1.912-3.721-.731-5.625-1.472-6.346-3.103-.094-.216-.563-1.34-.15-2.578 1.087-3.282 6.75-2.644 7.443-5.288.469-1.772-1.622-3.769-2.353-4.462-.984-.938-4.125-2.466-8.25-3.385-4.669-1.04-10.425-1.406-12.422-1.444-6.197-.13-9.928-.187-15.056.797 0 0-13.219 2.532-20.953 9.966-1.819 1.95-3.506 4.434-3.647 7.697 0 .047 0 .103-.01.169 0 0-.093 3.73 2.691 7.631 6.207 8.7 27.075 13.003 27.075 13.003 13.294 2.737 23.447 2.906 31.94 3.009 10.163.113 20.326-.487 30.348-4.293a53 53 0 0 0 3.215-1.322c8.1-3.666 8.26-6.057 8.194-6.76"/><path fill="#F79329" d="M85.35 91.931c.956 1.997 7.584 2.944 7.237 5.138s-6.91 1.05-8.475 2.615c-1.575 1.566-.46 8.129-2.643 8.475-2.194.338-3.141-6.243-5.11-7.256-1.978-1.012-7.865 2.081-8.869.103s4.97-4.912 5.316-7.106-4.406-6.834-2.831-8.41c1.565-1.565 6.197 3.16 8.4 2.86 2.25-.3 5.54-6.206 7.519-5.09 1.865 1.078-1.482 6.712-.544 8.671"/><path fill="#78A3AD" d="M38.794 88.097a3 3 0 0 1-.666-.216 2.92 2.92 0 0 1-1.453-3.862l17.86-39.535a2.925 2.925 0 0 1 3.862-1.453 2.92 2.92 0 0 1 1.453 3.863L41.99 86.438a2.92 2.92 0 0 1-3.196 1.659"/><path fill="#fff" d="m74.325 17.138-.225-.104c.085.038.169.085.253.122zm-2.465.9c1.959 6.356 6.14 24.918-2.129 49.087.01-.037.029-.075.038-.112 14.653-3.788 23.944 4.134 24.131 4.293 3.319-29.08-15.994-49.312-21.46-54.393l-.234.562a1.8 1.8 0 0 1-.346.563m-3.188-2.016.178-.422c-7.378.01-31.987 1.772-48.056 23.625.44.047 12.216 2.466 20.24 13.903l-.028.075c9.244-21.628 22.247-32.325 27.582-36.01a1.88 1.88 0 0 1 .084-1.171"/><path fill="#196CA2" d="M74.354 17.156c-.085-.037-.17-.084-.254-.122-.478-.225-.947-.44-1.434-.656l-.225.544c5.466 5.081 24.778 25.303 21.46 54.394-.188-.17-9.479-8.082-24.132-4.294-.01.037-.028.075-.037.112C78 42.956 73.819 24.404 71.86 18.047a1.94 1.94 0 0 1-1.632.619 1.89 1.89 0 0 1-1.64-1.463c-5.334 3.685-18.338 14.381-27.581 36.01l.028-.075C33 41.7 21.235 39.28 20.795 39.225 36.862 17.372 61.471 15.609 68.85 15.6l.291-.694c-24.544-9.45-50.11-4.312-64.528 11.4-.947 1.031-.74 2.728.412 3.422 3.525 2.138 10.229 6.834 13.294 13.275.103.038 15.403 5.185 20.522 15.731.122.01 17.419.853 29.588 11.963 0 .01-.01.019-.01.019s13.856-3.835 24.872 4.706c.028-.14.047-.272.066-.403l-.057.375s8.485-4.838 17.016-1.885c1.106.385 2.259-.553 2.25-1.809-.141-21.525-14.888-43.444-38.213-54.544"/><path fill="#78A3AD" d="m68.85 15.61-.178.421c-.16.385-.179.788-.094 1.172a1.905 1.905 0 0 0 1.64 1.463 1.94 1.94 0 0 0 1.988-1.172l.234-.563.225-.544 2.222-5.38a1.914 1.914 0 0 0-1.04-2.504 1.925 1.925 0 0 0-2.504 1.04l-2.222 5.373z"/></svg>
